_assets/img/icons/icon-expand-black.svg

<svg width="32" height="32" viewBox="0 0 32 32" xmlns="http://www.w3.org/2000/svg" xmlns:sketch="http://www.bohemiancoding.com/sketch/ns"><title>Group</title><desc>Created with Sketch.</desc><path d="M.9 19.5v12.5h12.5v-2.6h-9.9v-9.9h-2.6zm12.5-18.7h-12.5v12.4h2.6v-9.9h9.9v-2.5zm18.4 12.4v-12.4h-12.4v2.5h9.9v9.9h2.5zm-12.4 18.8h12.4v-12.5h-2.5v9.9h-9.9v2.6zm4-20.9l8.4-8.5-1.8-1.8-8.4 8.5 1.8 1.8zm-12.1-1.7l-8.6-8.6-1.8 1.8 8.5 8.6 1.9-1.8zm-1.7 11.9l-8.7 8.9 1.8 1.8 8.7-8.8-1.8-1.9zm11.8 2l8.6 8.7 1.8-1.8-8.6-8.7-1.8 1.8z" sketch:type="MSShapeGroup"/></svg>

<svg width="32" height="32" viewBox="0 0 32 32" xmlns="http://www.w3.org/2000/svg"><title>Group</title><desc>Created with Sketch.</desc><path d="M.9 19.5V32h12.5v-2.6H3.5v-9.9H.9zM13.4.8H.9v12.4h2.6V3.3h9.9V.8zm18.4 12.4V.8H19.4v2.5h9.9v9.9h2.5zM19.4 32h12.4V19.5h-2.5v9.9h-9.9V32zm4-20.9l8.4-8.5L30 .8l-8.4 8.5 1.8 1.8zM11.3 9.4L2.7.8.9 2.6l8.5 8.6 1.9-1.8zM9.6 21.3L.9 30.2 2.7 32l8.7-8.8-1.8-1.9zm11.8 2L30 32l1.8-1.8-8.6-8.7-1.8 1.8z"/></svg>
